X: 35953
T: Sarah Hobbs
R: reel
M: 4/4
K: Dmixolydian
DEGA BG G2|AGBG ABGE|DEGA (3Bcd ed|BAAG ABGE|
DEGA BG G2|AGBG ABGE|DEGA (3Bcd ed|BAAG A2 (3Bcd||
eA A2 (3Bcd eg|dG G2 BG (3Bcd|eA A2 (3Bcd eg|dBGB A2 (3Bcd|
eA A2 (3Bcd eg|dG G2 BG (3Bcd|eg g2 edea|gedB ABGE||

